!! 00000] TT[00
!! NN
!!!OTL: Zhaobao shan wai yuge
!!!ARE: Asia, China,ˇZhejiang, Zhenhai
!! Ethnic Group: Han
!! III, 635
!!!SCT: C0362
!!!YEM: Copyright 1995, estate of Helmut Schaffrath.
**kern
*ICvox
*Ivox
!! Mixed meters:  2/4; 3/4
*M2/4
*k[b-e-]
*B-:
{8dd
16dd
16gg
8ff
8r
=1
8bb-
16bb-
16dd
8ff
8r
=2
8ddd
8ccc
8bb-
16ccc
16ccc
=3
8bb-
16bb-
16dd
8ff
8r}
=4
{8dd
16dd
16gg
8ff
8r
=5
16bb-
16ccc
16bb-
16dd
8ff
8r
=6
8ddd
16ddd
16ccc
8bb-
8ddd
=7
16ccc
16ccc
16ccc
16ff
8bb-
8r}
=8
{8dd
16dd
16gg
8ff
8r
=9
8bb-
16bb-
16dd
8ff
8r
=10
8ddd
16ddd
16ccc
8bb-
8ccc
=11
16bb-
16ccc
16bb-
16dd
8ff
8r}
=12
{8dd
16dd
16gg
8ff
8r
=13
8bb-
16bb-
16dd
8ff
8r
=14
8ddd
16ddd
16ccc
8bb-
8ddd
=15
16ccc
8ccc
16dd
8ff
8gg
=16
2bb-}
=17
{16aa
16aa
16aa
16aa
8aa
16aa
16aa
=18
8aa
8aa
8dd
8aa
=19
8gg
8cc
4ff}
=20
{8gg
8ff
8bb-
8ccc
=21
8.ddd
16fff
8.bb-
16gg
=22
[2ccc
=23
4.ccc]
8fff}
=24
{8ccc
8ccc
8.ccc
16ccc
=25
16ccc
16ccc
16ccc
16ccc
8ccc
8ccc
=26
8aa
8ddd
8ccc
8r}
=27
{8.fff
16ddd
8.ccc
16ccc
=28
16ccc
16ccc
16ccc
16ccc
8cccc
8ccc
=29
8aa
8ddd
8ccc
8r}
=30
{8ccc
16ccc
16ddd
8ccc
8bb-
=31
8.aa
16ddd
8.gg
16ccc
=32
2ff}
=33
{8ff
8ff
8ff
8r
=34
8ff
16ff
16ff
8ff
8ff
=35
8dd
8gg
8ff
8r}
=36
{8ff
8ff
8ff
8r
=37
8ff
16ff
16ff
8ff
8ff
=38
8dd
16dd
16gg
4ff}
=39
{4.fff
8ddd
=40
8ccc
8ccc
4r}
=41
{8ccc
8ccc
8.ccc
16ccc
=42
8ccc
16ccc
16ccc
8ccc
8ccc
=43
8aa
16ddd
16ddd
8ccc
8r}
=44
{8fff
8ddd
8.ccc
16ccc
=45
8ccc
16ccc
16ccc
8ccc
8ccc
=46
8aa
16ddd
16ddd
8ccc
8r}
=47
{8.ccc
16ddd
8ccc
8bb-
=48
8.aa
16ddd
8.gg
16ccc
=49
2ff}
=50
{8ff
8ff
8ff
8r
=51
8dd
16ff
16ff
8ff
8ff
=52
8.dd
16gg
8ff
8r}
=53
{8ff
8ff
8ff
8r
=54
8ff
16ff
16ff
8dd
8ff
=55
8.dd
16gg
8ff
8r}
=56
{[2fff
=57
4.fff]
8ddd
=58
8ccc
8ccc
8ccc
8ccc
=59
8ccc
8ccc
8ccc
8r}
=60
{8ccc
8ccc
8ccc
8ccc
=61
*M3/4
8bbn
8ddd
8ccc
16ccc
16ccc
8ccc
8ccc
=62
*M2/4
4ccc
4bb-
=63
2aa}
=64
{4.gg
8gg
=65
4ff
4ff
=66
4.bb-
8ccc
=67
2ddd}
=68
{4ccc
4cc
=69
4dd
4aa
=70
4gg
4cc
=71
2ff}
==
!!!AGN: Xiaodiao, YÅge. Buyu laodong shi chang
!! prosaisch. ++++ Grundton wechselt von B nach F!! ++++
!!    3/4 in der Vorlage nicht angegeben. Vereinzelt Verzierungen.
!!!ONB: ESAC (Essen Associative Code) Database: CHINA
!!!AMT: irregular
!!!AIN: vox
!!!EED: Helmut Schaffrath
!!!EEV: 1.0
*-
!!!ONB: Tied note syntax fixed by Craig Sapp, 2004/05/03/
